X:5847
T:Scots come o'er the Border. CJF.036
O:england
M:6/8
L:1/8
Q:100
S: C.J.Fox MS, 1829/33, Beverley,E.Yorks.
R:Jig
A:East Yorkshire
B:Kidson Coll.Mitchell Lib.M1805
N:On the stave at the end is "D Capo". - PJH
K:D
D3FA2|d>fed2A|B=cBB2b|bag fed|D3FA2|\
d>fed2A|B<dBA<FA|B<dFE2D:|:hf>ga afa|
bag fed|f>ga bc'd'|d<gfe2d|fga afa|d'c'g fed|d'c'b afa|b<d'fe2d:|]


